assets/features/home/subscription/JCB.svg

<svg width="60" height="40" viewBox="0 0 60 40" fill="none" xmlns="http://www.w3.org/2000/svg">
<rect x="0.5" y="0.5" width="59" height="39" rx="7.5" fill="white"/>
<rect x="0.5" y="0.5" width="59" height="39" rx="7.5" stroke="#EEEEEE"/>
<path d="M49.4626 27.9524C49.4626 31.2857 46.7476 34 43.4134 34H10.5V10.0476C10.5 6.71429 13.215 4 16.5492 4H49.4626V27.9524Z" fill="white"/>
<path d="M38.7455 22.6664H41.2461C41.3176 22.6664 41.4843 22.6426 41.5557 22.6426C42.0321 22.5471 42.4369 22.1175 42.4369 21.5207C42.4369 20.9479 42.0321 20.5182 41.5557 20.3989C41.4843 20.375 41.3414 20.375 41.2461 20.375H38.7455V22.6664Z" fill="url(#paint0_linear_1226_10867)"/>
<path d="M40.9607 6.84082C38.5791 6.84082 36.6262 8.77423 36.6262 11.185V15.6963H42.7469C42.8898 15.6963 43.0565 15.6963 43.1756 15.7202C44.5569 15.7918 45.581 16.5078 45.581 17.749C45.581 18.7277 44.8903 19.5631 43.6043 19.7302V19.7779C45.0094 19.8734 46.0811 20.6611 46.0811 21.8784C46.0811 23.1912 44.8903 24.0505 43.3185 24.0505H36.6024V32.8821H42.9612C45.3428 32.8821 47.2957 30.9487 47.2957 28.5379V6.84082H40.9607Z" fill="url(#paint1_linear_1226_10867)"/>
<path d="M42.1273 18.0356C42.1273 17.4627 41.7225 17.0808 41.2461 17.0092C41.1985 17.0092 41.0794 16.9854 41.008 16.9854H38.7455V19.0858H41.008C41.0794 19.0858 41.2223 19.0858 41.2461 19.062C41.7225 18.9904 42.1273 18.6085 42.1273 18.0356Z" fill="url(#paint2_linear_1226_10867)"/>
<path d="M17.0014 6.84082C14.6198 6.84082 12.6669 8.77423 12.6669 11.185V21.9023C13.8815 22.499 15.1437 22.8809 16.406 22.8809C17.9064 22.8809 18.7161 21.9739 18.7161 20.7327V15.6724H22.4314V20.7088C22.4314 22.6661 21.2167 24.2653 17.0966 24.2653C14.596 24.2653 12.6431 23.7163 12.6431 23.7163V32.8582H19.0019C21.3835 32.8582 23.3364 30.9248 23.3364 28.5141V6.84082H17.0014Z" fill="url(#paint3_linear_1226_10867)"/>
<path d="M28.9808 6.84082C26.5993 6.84082 24.6464 8.77423 24.6464 11.185V16.8659C25.7419 15.935 27.6472 15.3383 30.7194 15.4815C32.3627 15.5531 34.125 16.0066 34.125 16.0066V17.8445C33.2439 17.391 32.196 16.9852 30.8385 16.8898C28.5045 16.7227 27.0994 17.8684 27.0994 19.8734C27.0994 21.9023 28.5045 23.048 30.8385 22.8571C32.196 22.7616 33.2439 22.3319 34.125 21.9023V23.7402C34.125 23.7402 32.3865 24.1937 30.7194 24.2653C27.6472 24.4086 25.7419 23.8118 24.6464 22.8809V32.906H31.0052C33.3868 32.906 35.3396 30.9726 35.3396 28.5618V6.84082H28.9808Z" fill="url(#paint4_linear_1226_10867)"/>
<defs>
<linearGradient id="paint0_linear_1226_10867" x1="36.6218" y1="21.5236" x2="47.3242" y2="21.5236" gradientUnits="userSpaceOnUse">
<stop stop-color="#007940"/>
<stop offset="0.229" stop-color="#00873F"/>
<stop offset="0.743" stop-color="#40A737"/>
<stop offset="1" stop-color="#5CB531"/>
</linearGradient>
<linearGradient id="paint1_linear_1226_10867" x1="36.6219" y1="19.851" x2="47.325" y2="19.851" gradientUnits="userSpaceOnUse">
<stop stop-color="#007940"/>
<stop offset="0.229" stop-color="#00873F"/>
<stop offset="0.743" stop-color="#40A737"/>
<stop offset="1" stop-color="#5CB531"/>
</linearGradient>
<linearGradient id="paint2_linear_1226_10867" x1="36.6216" y1="18.0325" x2="47.3242" y2="18.0325" gradientUnits="userSpaceOnUse">
<stop stop-color="#007940"/>
<stop offset="0.229" stop-color="#00873F"/>
<stop offset="0.743" stop-color="#40A737"/>
<stop offset="1" stop-color="#5CB531"/>
</linearGradient>
<linearGradient id="paint3_linear_1226_10867" x1="12.6619" y1="19.851" x2="23.5297" y2="19.851" gradientUnits="userSpaceOnUse">
<stop stop-color="#1F286F"/>
<stop offset="0.475" stop-color="#004E94"/>
<stop offset="0.826" stop-color="#0066B1"/>
<stop offset="1" stop-color="#006FBC"/>
</linearGradient>
<linearGradient id="paint4_linear_1226_10867" x1="24.5847" y1="19.851" x2="35.1401" y2="19.851" gradientUnits="userSpaceOnUse">
<stop stop-color="#6C2C2F"/>
<stop offset="0.173" stop-color="#882730"/>
<stop offset="0.573" stop-color="#BE1833"/>
<stop offset="0.859" stop-color="#DC0436"/>
<stop offset="1" stop-color="#E60039"/>
</linearGradient>
</defs>
</svg>

<svg xmlns="http://www.w3.org/2000/svg" width="60" height="40" fill="none" viewBox="0 0 60 40"><rect width="59" height="39" x=".5" y=".5" fill="#fff" rx="7.5"/><rect width="59" height="39" x=".5" y=".5" stroke="#eee" rx="7.5"/><path fill="#fff" d="M49.463 27.952A6.057 6.057 0 0 1 43.413 34H10.5V10.048A6.057 6.057 0 0 1 16.55 4h32.913z"/><path fill="url(#a)" d="M38.746 22.666h2.5c.072 0 .238-.023.31-.023.476-.096.88-.526.88-1.122 0-.573-.404-1.003-.88-1.122-.072-.024-.215-.024-.31-.024h-2.5z"/><path fill="url(#b)" d="M40.96 6.84a4.34 4.34 0 0 0-4.334 4.345v4.511h6.12c.144 0 .31 0 .43.024 1.38.072 2.405.788 2.405 2.029 0 .979-.69 1.814-1.977 1.981v.048c1.405.095 2.477.883 2.477 2.1 0 1.313-1.19 2.172-2.763 2.172h-6.716v8.832h6.36a4.34 4.34 0 0 0 4.334-4.344V6.84z"/><path fill="url(#c)" d="M42.127 18.036c0-.573-.405-.955-.88-1.027-.048 0-.168-.024-.239-.024h-2.263v2.1h2.263c.071 0 .214 0 .238-.023.476-.072.881-.454.881-1.026"/><path fill="url(#d)" d="M17.001 6.84a4.34 4.34 0 0 0-4.334 4.345v10.717c1.215.597 2.477.979 3.739.979 1.5 0 2.31-.907 2.31-2.148v-5.06h3.715v5.036c0 1.957-1.214 3.556-5.334 3.556-2.501 0-4.454-.549-4.454-.549v9.142h6.359a4.34 4.34 0 0 0 4.334-4.344V6.841z"/><path fill="url(#e)" d="M28.98 6.84a4.34 4.34 0 0 0-4.334 4.345v5.68c1.096-.93 3.001-1.527 6.073-1.383 1.644.071 3.406.525 3.406.525v1.837c-.881-.453-1.929-.859-3.286-.954-2.334-.167-3.74.978-3.74 2.983 0 2.03 1.406 3.175 3.74 2.984 1.357-.095 2.405-.525 3.286-.955v1.838s-1.739.454-3.406.525c-3.072.144-4.977-.453-6.073-1.384v10.025h6.36a4.34 4.34 0 0 0 4.334-4.344V6.84z"/><defs><linearGradient id="a" x1="36.622" x2="47.324" y1="21.524" y2="21.524" gradientUnits="userSpaceOnUse"><stop stop-color="#007940"/><stop offset=".229" stop-color="#00873f"/><stop offset=".743" stop-color="#40a737"/><stop offset="1" stop-color="#5cb531"/></linearGradient><linearGradient id="b" x1="36.622" x2="47.325" y1="19.851" y2="19.851" gradientUnits="userSpaceOnUse"><stop stop-color="#007940"/><stop offset=".229" stop-color="#00873f"/><stop offset=".743" stop-color="#40a737"/><stop offset="1" stop-color="#5cb531"/></linearGradient><linearGradient id="c" x1="36.622" x2="47.324" y1="18.032" y2="18.032" gradientUnits="userSpaceOnUse"><stop stop-color="#007940"/><stop offset=".229" stop-color="#00873f"/><stop offset=".743" stop-color="#40a737"/><stop offset="1" stop-color="#5cb531"/></linearGradient><linearGradient id="d" x1="12.662" x2="23.53" y1="19.851" y2="19.851" gradientUnits="userSpaceOnUse"><stop stop-color="#1f286f"/><stop offset=".475" stop-color="#004e94"/><stop offset=".826" stop-color="#0066b1"/><stop offset="1" stop-color="#006fbc"/></linearGradient><linearGradient id="e" x1="24.585" x2="35.14" y1="19.851" y2="19.851" gradientUnits="userSpaceOnUse"><stop stop-color="#6c2c2f"/><stop offset=".173" stop-color="#882730"/><stop offset=".573" stop-color="#be1833"/><stop offset=".859" stop-color="#dc0436"/><stop offset="1" stop-color="#e60039"/></linearGradient></defs></svg>
